!!!OTL: Divertimento in F, 1. Satz, KV 138/01
!!!system-decoration: [(s1,s2,s3,s4)]
**kern	**kern	**kern	**kern	**kern	**kern	**kern	**kern	**kern	**kern	**kern	**kern	**kern	**kern	**kern	**kern
*part4	*part4	*part4	*part4	*part3	*part3	*part3	*part3	*part2	*part2	*part2	*part2	*part1	*part1	*part1	*part1
*staff16	*staff15	*staff14	*staff13	*staff12	*staff11	*staff10	*staff9	*staff8	*staff7	*staff6	*staff5	*staff4	*staff3	*staff2	*staff1
*I"Violoncello e Basso	*	*	*	*I"Viola	*	*	*	*I"Violino II	*	*	*	*I"Violino I	*	*	*
*clefF4	*clefC3	*clefG2	*clefG2
*k[b-]	*k[b-]	*k[b-]	*k[b-]
*M4/4	*M4/4	*M4/4	*M4/4
4F	4f	4f	4ff
4A	4a	4a	4aa
4c	4cc	4cc	4ccc
4r	4r	4r	4r
=2	=2	=2	=2
1r	4e	4g	(8.ccL
.	.	.	16ddJ)
.	4d	4f	(8.b-yL
.	.	.	16ccJ)
.	4c	4e	4a
.	4r	4r	4r
=3	=3	=3	=3
4BB-y	4B-y	4B-y	4b-y
4D	4d	4d	4dd
4F	4f	4f	4ff
4r	4r	4r	4r
=4	=4	=4	=4
1r	4c	4e	(8.aL
.	.	.	16b-yJ)
.	4B-y	4d	(8.gL
.	.	.	16aJ)
.	4A	4c	4f
.	4r	4r	8r
.	.	.	8cc
=5	=5	=5	=5
8FL	8fL	8r	2aa
8F	8f	(16ccL	.
.	.	16bnJ)	.
8F	8f	8ccL	.
8FJ	8fJ	8ccJ	.
8EL	8eL	8r	(4.gg
8E	8e	(16ccL	.
.	.	16bJ)	.
8E	8e	8ccL	.
8EJ	8eJ	8ccJ	8aa)
!!LO:LB
=6	=6	=6	=6
8DL	8dL	8r	(2gg
8D	8d	8aL	.
8D	8d	8bn	.
8DJ	8dJ	8cc#J	.
8DL	8dL	(16ddL	4ff)
.	.	16ee	.
8D	8d	16ff	.
.	.	16eeJ)	.
8D	8d	8ddL	8r
8DJ	8dJ	8aJ	8ff
=7	=7	=7	=7
8B-yL	8b-yL	8r	2ddd
8B-y	8b-y	(16ffL	.
.	.	16eeJ)	.
8B-y	8b-y	8ffL	.
8B-yJ	8b-yJ	8ffJ	.
8AL	8aL	8r	(4.ccc
8A	8a	(16ffL	.
.	.	16eeJ)	.
8A	8a	8ffL	.
8AJ	8aJ	8ffJ	8ddd)
=8	=8	=8	=8
8GL	8gL	8r	(2ccc
8G	8g	8ddL	.
8G	8g	8ee	.
8GJ	8gJ	8ffJ	.
8GL	8gL	(16ggL	4bb-y)
.	.	16aa	.
8G	8g	16bb-y	.
.	.	16aaJ)	.
8G	8g	8ggL	8r
8GJ	8gJ	8b-yJ	8dd
=9	=9	=9	=9
8EL	8r	8gL	4.bb-y
8E	8cL	16cc	.
.	.	16eeJ	.
8E	8e	8ggL	.
8EJ	8gJ	8ggJ	8cc
.	.	.	(<16qccc
8EL	4cc	4gg	8bb-yL)
8E	.	.	16aa
.	.	.	16ggJ
.	.	.	(<16qccc
8E	4c	4r	8bb-yL)
8EJ	.	.	16aa
.	.	.	16ggJ
!!LO:LB
=10	=10	=10	=10
8FL	8r	8fL	4.aa
8F	8cL	16a	.
.	.	16ccJ	.
8F	8f	8ffL	.
8FJ	8aJ	8ffJ	8cc
.	.	.	(<16qbb-y
8DL	8fL	4ff	8aaL)
8D	8f	.	16gg
.	.	.	16ffJ
.	.	.	(<16qgg
8D	8f	4r	8ffL)
8DJ	8fJ	.	16ee
.	.	.	16ddJ
=11	=11	=11	=11
.	.	(<16qg	.
.	.	.	(<16qee
8BB-yL	8B-y	8fL)	8ddL)
8BB-y	(4f	16e	16cc
.	.	16dJ	16b-yJ
.	.	(<16qe	.
.	.	.	(<16qcc
8BB-y	.	8dL)	8b-yL)
8BB-yJ	8d)	16c	16a
.	.	16B-yJ	16gJ
8CL	8cL	4A	4f
8C	8c	.	.
8C	8c	4G	4e
8CJ	8cJ	.	.
=12	=12	=12	=12
8FL	8cL	8AL	4f
(8F	(8A	(8f	.
8E	8B-y	8g	4r
8FJ)	8AJ)	8fJ)	.
(8GL	(8B-yL	(8eL	4r
8F	8A)	8f)	.
8E	(8b-y	(8dd	8r
8FJ)	8aJ)	8ccJ)	8cc
=13	=13	=13	=13
8EL	8r	8gL	4.bb-y
8E	8cL	16cc	.
.	.	16eeJ	.
8E	8e	8ggL	.
8EJ	8gJ	8ggJ	8cc
.	.	.	(<16qccc
8EL	4cc	4gg	8bb-yL)
8E	.	.	16aa
.	.	.	16ggJ
.	.	.	(<16qccc
8E	4c	4r	8bb-yL)
8EJ	.	.	16aa
.	.	.	16ggJ
!!LO:LB
=14	=14	=14	=14
8FL	8r	8fL	4.aa
8F	8cL	16a	.
.	.	16ccJ	.
8F	8f	8ffL	.
8FJ	8aJ	8ffJ	8cc
.	.	.	(<16qbb-y
8DL	8fL	4ff	8aaL)
8D	8f	.	16gg
.	.	.	16ffJ
.	.	.	(<16qgg
8D	8f	4r	8ffL)
8DJ	8fJ	.	16ee
.	.	.	16ddJ
=15	=15	=15	=15
.	.	(<16qg	.
.	.	.	(<16qee
8BB-yL	8B-y	8fL)	8ddL)
8BB-y	(4f	16e	16cc
.	.	16dJ	16b-yJ
.	.	(<16qe	.
.	.	.	(<16qcc
8BB-y	.	8dL)	8b-yL)
8BB-yJ	8d)	16c	16a
.	.	16B-yJ	16gJ
8CL	8cL	4A	4f
8C	8c	.	.
8C	8c	4G	4e
8CJ	8cJ	.	.
=16	=16	=16	=16
8FL	8cL	8AL	4f
8F	8cJ	16A	.
.	.	16cJ	.
8F	8cL	8fL	4aa
8FJ	16A	16c	.
.	16cJ	16fJ	.
8FL	8fL	8aL	4.d
8F	16d	16f	.
.	16fJ	16aJ	.
8F	[4a	8ddL	.
8FJ	.	16ff	8aa
.	.	16ddJ	.
=17	=17	=17	=17
8EL	4a]	4gg	4c#
8E	.	.	.
8D	(4d	(4B-y	4.gg
8DJ	.	.	.
8C#L	4e)	8AL)	.
8C#y	.	8cc#J	8ee
.	.	(<16qff	.
.	.	.	(<16qaa
8AA	8r	8eeL)	8ggL)
8AAJ	8a	16dd	16ff
.	.	16cc#yJ	16eeJ
=18	=18	=18	=18
8DL	4a	8ddL	4ff
8D	.	16ff	.
.	.	16ddJ	.
.	.	(<16qcc	.
8D	4f	8bnL)	4aa
8DJ	.	16a	.
.	.	16bJ	.
8CnL	4e	8ccL	4.cn
8C	.	16g	.
.	.	16ccJ	.
8C	4c	8eeL	.
8CJ	.	16cc	8gg
.	.	16eeJ	.
=19	=19	=19	=19
8DL	8G	8ffL	4Bn
8C	4g	8ee	.
8BBn	.	8dd	4.ff
8AAJ	8g	8ccJ	.
8GGL	8gL	8bnL	.
8GG	8G	8bJ	8dd
.	.	(<16qee	.
.	.	.	(<16qgg
8GG	8g	8ddL)	8ffL)
8GGJ	8fJ	16cc	16ee
.	.	16bJ	16ddJ
=20	=20	=20	=20
8CL	4e	8ccL	4cc
8C	.	(16g	.
.	.	16ccJ)	.
8C	(16gL	(16eeL	4ccc
.	16a	16ff	.
8CJ	16g	16ee	.
.	16fJ)	16ddJ)	.
8CL	4.g	8ccL	4.ee-
8C	.	(16g	.
.	.	16ccJ)	.
8C	.	(16ee-L	.
.	.	16ff	.
8CJ	8g	16ee-y	8ccc
.	.	16ddJ)	.
=21	=21	=21	=21
8F#L	4e-	4cc	4A
8F#y	.	.	.
8F#y	(2a	(2cc	2ee-
8F#yJ	.	.	.
8F#yL	.	.	.
8F#y	.	.	.
8F#y	4d)	4a)	(16ddL
.	.	.	16cc
8F#yJ	.	.	16bn
.	.	.	16ccJ)
!!LO:LB
=22	=22	=22	=22
4G	4d	4d	4bn
4r	4r	4r	8r
.	.	.	8gg
2r	2r	2r	(8gL
.	.	.	8a)
.	.	.	(8a
.	.	.	8bJ)
=23	=23	=23	=23
1r	1r	4r	(16bnL
.	.	.	16cc
.	.	.	16b
.	.	.	16aJ)
.	.	8r	8gL
.	.	8gg	8ggJ
.	.	(8gL	(8bL
.	.	8a)	8cc)
.	.	(8a	(8cc
.	.	8bnJ)	8ddJ)
=24	=24	=24	=24
1r	1r	(16bnL	(16ddL
.	.	16cc	16ee
.	.	16b	16dd
.	.	16aJ)	16ccJ)
.	.	8gL	8bnL
.	.	8bJ	8ggJ
.	.	(8bL	(8ddL
.	.	8cc)	8ee)
.	.	(8cc	(8ee
.	.	8ddJ)	8ffJ)
=25	=25	=25	=25
8GL	8GL	16ddL	16ffL
.	.	16dd	16ff
8G	8G	16dd	16ff
.	.	16ddJ	16ffJ
8G	8G	16eeL	16ggL
.	.	16ee	16gg
8GJ	8GJ	16ee	16gg
.	.	16eeJ	16ggJ
8GL	8GL	16ffL	16aaL
.	.	16ff	16aa
8G	8G	16ff	16aa
.	.	16ffJ	16aaJ
8G	8G	16ddL	16bbnL
.	.	16dd	16bb
8GJ	8GJ	16dd	16bb
.	.	16ddJ	16bbJ
!!LO:LB
=26	=26	=26	=26
4C	4G	4ee	4ccc
4r	4r	4r	2gg
8EL	8gL	8ccL	.
8E	8g	8cc	.
8E	8g	8cc	(8ffL
8EJ	8gJ	8ccJ	8eeJ)
=27	=27	=27	=27
8FL	8aL	8ccL	(8eeL
8F	8a	8cc	8ddJ)
8F	8a	8cc	(2dd
8FJ	8aJ	8ccJ	.
8FL	8aL	8ccL	.
8F	8a	8cc	.
8G	8g	8cc	4ee)
8GJ	8gJ	8ccJ	.
=28	=28	=28	=28
8AL	8fL	8ccL	(8eeL
8A	8f	8cc	8ffJ)
8A	8f	8cc	(2ff
8AJ	8fJ	8ccJ	.
8AL	8fL	8ccL	.
8A	8f	8cc	.
8G	8e	8cc	4gg)
8GJ	8eJ	8ccJ	.
=29	=29	=29	=29
8FL	(4.a	(4.cc	(4.aa
8F	.	.	.
8F	.	.	.
8FJ	8g)	8dd)	8bbn)
8EL	4g	8ccL	8cccL
8E	.	(8ee	(8gg
8A	4a	8dd	8ff
8AJ	.	8ccJ)	8eeJ)
=30	=30	=30	=30
8FL	8aL	2.cc	(4.dd
8F	8a	.	.
8F	8a	.	.
8FJ	8aJ	.	16eeL
.	.	.	16ffJ)
8GL	8gL	.	4ee
8G	8g	.	.
8G	8g	4bn	4dd
8GJ	8gJ	.	.
!!LO:LB
=31	=31	=31	=31
4C	4g	4cc	4cc
4r	8r	8r	8r
.	8g	8ee	8gg
2r	(8ccL	(8aaL	(8cccL
.	8bn	8gg	8bbn
.	8a	8ff	8aa
.	8gJ)	8eeJ)	8ggJ)
=32	=32	=32	=32
4r	(8fL	(8ddL	(8ffL
.	8eJ)	8ccJ)	8eeJ)
4A	8r	8r	8r
.	8e	8cc	8ee
4F	(8gL	(8eeL	(8ggL
.	8f	8dd	8ff
4G	8e	8cc	8ee
.	8dJ)	8bnJ)	8ddJ)
=33	=33	=33	=33
4C	4e	4cc	4ee
4r	8r	8r	8r
.	8g	8ee	8gg
2r	(8ccL	(8aaL	(8cccL
.	8bn	8gg	8bbn
.	8a	8ff	8aa
.	8gJ)	8eeJ)	8ggJ)
=34	=34	=34	=34
4r	(8fL	(8ddL	(8ffL
.	8eJ)	8ccJ)	8eeJ)
4A	8r	8r	8r
.	8e	8cc	8ee
4F	(8gL	(8eeL	(8ggL
.	8f	8dd	8ff
4G	8e	8cc	8ee
.	8dJ)	8bnJ)	8ddJ)
=35	=35	=35	=35
4C	4c	4cc	4cc
4C	4g	4ee 4cc	4ccc 4ee
4C	4e 4c	4ee 4cc 4g	4ccc 4ee
4r	4r	4r	4r
=36:|!	=36:|!	=36:|!	=36:|!
8CL	8cL	8eL	2gg
8C	8c	8e	.
8C	8c	8e	.
8CJ	8cJ	8eJ	.
8CL	8cL	8eL	(4.gg
8C	8c	8e	.
8C	8c	8e	.
8CJ	8cJ	8eJ	8aa)
=37	=37	=37	=37
8DL	8GL	8BnL	(4gg
8D	8G	8B	.
8D	8G	8B	8.ffL)
8DJ	8GJ	8BJ	.
.	.	.	16ggJ
8EL	8GL	8cL	(4ff
8E	8G	8c	.
8E	8G	8c	8.eeL)
8EJ	8GJ	8cJ	.
.	.	.	16ffJ
=38	=38	=38	=38
8FL	8cL	8aL	(8eeL
8F	8c	8a	8ddJ)
8F	8f	8a	2cc
8FJ	8fJ	8aJ	.
8GL	8eL	8gL	.
8G	8e	8g	.
8G#	8d	8f	4bn
8G#yJ	8dJ	8fJ	.
=39	=39	=39	=39
8AL	(8dL	(8fL	(8bL
8A	8c)	8e)	8ccJ)
8A	8c	8e	2cc
8AJ	8cJ	8eJ	.
8AL	4c	8eL	.
8Bn	.	8d	.
8A	4r	8c	8r
8GJ	.	8B-J	8cc
=40	=40	=40	=40
8F#L	8r	(8AL	2ee-
8F#y	8AL	8c)	.
8F#y	8A	8c	.
8F#yJ	8AJ	8cJ	.
8GL	(8dL	8B-yL	(4.dd
8G	8B-y)	8B-y	.
8G	8G	8B-y	.
8GJ	8GJ	8B-yJ	8ee-y)
=41	=41	=41	=41
8DL	(8F#L	(8AL	(4dd
8D	8A)	8f#)	.
8D	8A	8f#y	8.ccL)
8DJ	8AJ	8f#yJ	.
.	.	.	16ddJ
8E-L	8GL	8gL	(4cc
8E-y	8G	8g	.
8D	8G	8g	8.b-L)
8DJ	8GJ	8gJ	.
.	.	.	16ccJ
!!LO:LB
=42	=42	=42	=42
8C#L	8enL	8gL	(4b-y
8C#y	8e	8g	.
8C#y	8e	8g	2a)
8C#yJ	8eJ	8gJ	.
8DL	(8dL	(8fnL	.
8D	8f)	8a)	.
8D	(8f	(8a	4ff
8DJ	8aJ)	8ddJ)	.
=43	=43	=43	=43
4A	4a	4ddT	4ffT
8AAL	4A	4cc#	4een
8AJ	.	.	.
(8GL	8r	4r	4r
8F	(8aL	.	.
8En	8g	8r	8r
8DJ)	8fJ)	8a	8aa
=44	=44	=44	=44
8C#L	8eL	8gL	2.bb-y
8C#y	8e	8g	.
8C#y	8e	8g	.
8C#yJ	8eJ	8gJ	.
8C#yL	8GL	8eL	.
8C#y	8G	8e	.
8C#y	8G	8e	(16aaL
.	.	.	16gg
8C#yJ	8B-yJ	8eJ	16ff
.	.	.	16ggJ)
=45	=45	=45	=45
4D	(8AL	(8dL	4ff
.	8dJ)	8fJ)	.
8DL	4f	4a	4r
8dJ	.	.	.
(8cL	8r	4r	4r
8B-	(8ddL	.	.
8A	8cc	8r	8r
8GJ)	8b-yJ)	8dd	8dd
=46	=46	=46	=46
8F#L	8aL	8ccL	2.ee-
8F#y	8a	8cc	.
8F#y	8a	8cc	.
8F#yJ	8aJ	8ccJ	.
8F#yL	8cL	8aL	.
8F#y	8c	8a	.
8F#y	8c	8a	(16ddL
.	.	.	16cc
8F#yJ	8e-J	8aJ	16b-y
.	.	.	16ccJ)
=47	=47	=47	=47
4G	(8dL	(8gL	4b-y
.	8gJ)	8b-yJ)	.
8GGL	4b-y	4dd	4r
8GJ	.	.	.
(8FnL	8r	4r	4r
8E-	(8gL	.	.
8D	8f	8r	8r
8CJ)	8e-J)	8g	8gg
!!LO:LB
=48	=48	=48	=48
8BBnL	8dL	8fL	2.aa-
8BB	8d	8f	.
8BB	8d	8f	.
8BBJ	8dJ	8fJ	.
8BBL	8FL	8dL	.
8BB	8F	8d	.
8BB	8F	8d	(16ggL
.	.	.	16ff
8BBJ	8A-J	8dJ	16een
.	.	.	16ffJ)
=49	=49	=49	=49
4C	(8GL	(8cL	4ee
.	8cJ)	8enJ)	.
8CL	4en	4g	4r
8cJ	.	.	.
(8BL	8r	4r	4r
8A	(8ccL	.	.
8G	8b-y	8r	8r
8FJ)	8aJ)	8cc	8cc
=50	=50	=50	=50
8EnL	8gL	8b-yL	2.dd
8E	8g	8b-y	.
8E	8g	8b-y	.
8EJ	8gJ	8b-yJ	.
8EL	8B-yL	8gL	.
8E	8B-y	8g	.
8E	8B-y	8g	(16ccL
.	.	.	16b-y
8EJ	8dJ	8gJ	16a
.	.	.	16b-yJ)
=51	=51	=51	=51
8E-L	8cL	16fL	8a
.	.	16f	.
8E-y	8c	16f	4ff
.	.	16fJ	.
8E-y	8c	16fL	.
.	.	16f	.
8E-yJ	8cJ	16f	4a
.	.	16fJ	.
8DL	8dL	16fL	.
.	.	16f	.
8D	8d	16f	4b-y
.	.	16fJ	.
8D	8d	16fL	.
.	.	16f	.
8DJ	8dJ	16f	[8bn
.	.	16fJ	.
=52	=52	=52	=52
8AAL	8AL	16fL	8b]
.	.	16f	.
8AA	8A	16f	4cc
.	.	16fJ	.
8AA	8A	16fL	.
.	.	16f	.
8AAJ	8AJ	16f	4cc#
.	.	16fJ	.
8BB-yL	8B-yL	16fL	.
.	.	16f	.
8BB-y	8B-y	16f	4dd
.	.	16fJ	.
8BBn	8G	(8fL	.
8BBJ	8GJ	8dJ)	8f
!!LO:LB
=53	=53	=53	=53
8CL	8GL	4c	4e
8c	8e	.	.
8G	8c	(16eL	(16ccL
.	.	16d	16bn
8EJ	8GJ	16e	16cc
.	.	16fJ)	16ddJ)
4C	4G	4e	4cc
4r	4r	4r	4r
=54	=54	=54	=54
4F	4f	4f	4ff
4A	4a	4a	4aa
4c	4cc	4cc	4ccc
4r	4r	4r	4r
=55	=55	=55	=55
1r	4e	4g	(8.ccL
.	.	.	16ddJ)
.	4d	4f	(8.b-yL
.	.	.	16ccJ)
.	4c	4e	4a
.	4r	4r	4r
=56	=56	=56	=56
4BB-y	4B-y	4B-y	4b-y
4D	4d	4d	4dd
4F	4f	4f	4ff
4r	4r	4r	4r
=57	=57	=57	=57
1r	4c	4e	(8.aL
.	.	.	16b-yJ)
.	4B-y	4d	(8.gL
.	.	.	16aJ)
.	4A	4c	4f
.	4r	4r	8r
.	.	.	8cc
=58	=58	=58	=58
8FL	8fL	8r	2aa
8F	8f	(16ccL	.
.	.	16ddJ)	.
8F	8f	8ccL	.
8FJ	8fJ	8ccJ	.
8EL	8eL	8r	(4.gg
8E	8e	(16ccL	.
.	.	16bnJ)	.
8E	8e	8ccL	.
8EJ	8eJ	8ccJ	8aa)
=59	=59	=59	=59
8DL	8dL	8r	(2gg
8D	8d	8aL	.
8D	8d	8bn	.
8DJ	8dJ	8cc#J	.
8DL	8dL	(16ddL	4ff)
.	.	16ee	.
8D	8d	16ff	.
.	.	16eeJ)	.
8D	8d	8ddL	8r
8DJ	8dJ	8aJ	8ff
=60	=60	=60	=60
8B-yL	8b-yL	8r	2ddd
8B-y	8b-y	(16ffL	.
.	.	16eeJ)	.
8B-y	8b-y	8ffL	.
8B-yJ	8b-yJ	8ffJ	.
8AL	8aL	8r	(4.ccc
8A	8a	(16ffL	.
.	.	16eeJ)	.
8A	8a	8ffL	.
8AJ	8aJ	8ffJ	8ddd)
=61	=61	=61	=61
8GL	8gL	8r	(2ccc
8G	8g	8ddL	.
8G	8g	8ee	.
8GJ	8gJ	8ff#J	.
8GL	8gL	(16ggL	4bb-y)
.	.	16aa	.
8G	8g	16bb-y	.
.	.	16aaJ)	.
8G	8g	8ggL	8r
8GJ	8gJ	8b-yJ	8dd
=62	=62	=62	=62
8EL	8r	8gL	4.bb-y
8E	8cL	16cc	.
.	.	16eeJ	.
8E	8e	8ggL	.
8EJ	8gJ	8ggJ	8cc
.	.	.	(<16qccc
8EL	4cc	4gg	8bb-yL)
8E	.	.	16aa
.	.	.	16ggJ
.	.	.	(<16qccc
8E	4c	4r	8bb-yL)
8EJ	.	.	16aa
.	.	.	16ggJ
!!LO:LB
=63	=63	=63	=63
8FL	8r	8fL	4.aa
8F	8cL	16a	.
.	.	16ccJ	.
8F	8f	8ffL	.
8FJ	8aJ	8ffJ	8cc
.	(<16qdd	.	.
.	.	.	(<16qbb-y
8FL	8ccL)	4ff	8aaL)
8F	16b-y	.	16gg
.	16aJ	.	16ffJ
.	(<16qb-y	.	.
.	.	.	(<16qgg
8F	8aL)	4r	8ffL)
8FJ	16g	.	16ee
.	16fJ	.	16ddJ
=64	=64	=64	=64
.	(<16qg	.	.
.	.	.	(<16qee
8BB-yL	8fL)	4r	8ddL)
8BB-y	16e	.	16cc
.	16dJ	.	16b-yJ
.	(<16qe	.	.
.	.	(<16qg	.
.	.	.	(<16qcc
8BB-y	8dL)	8fL)	8b-yL)
8BB-yJ	16c	16e	16a
.	16B-yJ	16dJ	16gJ
8CL	4A	4c	4f
8C	.	.	.
8C	4G	4B-y	4e
8CJ	.	.	.
=65	=65	=65	=65
8FL	8FL	8AL	4f
(8F	(8A	(8f	.
8E	8B-y	8g	4r
8FJ)	8AJ)	8fJ)	.
(8GL	(8B-yL	(8eL	4r
8F	8A)	8f)	.
8E	(8b-y	(8dd	8r
8FJ)	8aJ)	8ccJ)	8cc
=66	=66	=66	=66
8EL	8r	8gL	4.bb-y
8E	8cL	16cc	.
.	.	16eeJ	.
8E	8e	8ggL	.
8EJ	8gJ	8ggJ	8cc
.	.	.	(<16qccc
8EL	4cc	4gg	8bb-yL)
8E	.	.	16aa
.	.	.	16ggJ
.	.	.	(<16qccc
8E	4c	4r	8bb-yL)
8EJ	.	.	16aa
.	.	.	16ggJ
!!LO:LB
=67	=67	=67	=67
8FL	8r	8fL	4.aa
8F	8cL	16a	.
.	.	16ccJ	.
8F	8f	8ffL	.
8FJ	8aJ	8ffJ	8cc
.	.	.	(<16qbb-y
8DL	8fL	4ff	8aaL)
8D	8f	.	16gg
.	.	.	16ffJ
.	.	.	(<16qgg
8D	8f	4r	8ffL)
8DJ	8fJ	.	16ee
.	.	.	16ddJ
=68	=68	=68	=68
.	.	(<16qg	.
.	.	.	(<16qee
8BB-yL	4B-y	8fL)	8ddL)
8BB-y	.	16e	16cc
.	.	16dJ	16b-yJ
.	(<16qg	.	.
.	.	(<16qe	.
.	.	.	(<16qcc
8BB-y	8fL)	8dL)	8b-yL)
8BB-yJ	16e	16c	16a
.	16dJ	16B-yJ	16gJ
8CL	4c	4A	4f
8C	.	.	.
8C	4B-y	4G	4e
8CJ	.	.	.
=69	=69	=69	=69
8FL	4A	8AL	4f
8F	.	16A	.
.	.	16cJ	.
8F	8cL	8fL	4aa
8FJ	16A	16c	.
.	16cJ	16fJ	.
8FL	8fL	8aL	4.d
8F	16d	16f	.
.	16fJ	16aJ	.
8F	[4a	8ddL	.
8FJ	.	16ff	8aa
.	.	16ddJ	.
=70	=70	=70	=70
8EL	4a]	4gg	4c#
8E	.	.	.
8D	(4d	(4B-y	4.gg
8DJ	.	.	.
8C#L	4e)	8AL)	.
8C#y	.	8cc#J	8ee
.	.	(<16qff	.
.	.	.	(<16qaa
8AA	8r	8eeL)	8ggL)
8AAJ	8a	16dd	16ff
.	.	16cc#yJ	16eeJ
!!LO:LB
=71	=71	=71	=71
8DL	4a	8ddL	4ff
8D	.	16ff	.
.	.	16ddJ	.
.	.	(<16qcc	.
8D	4f	8bnL)	4aa
8DJ	.	16a	.
.	.	16bJ	.
8CnL	4e	8ccL	4.cn
8C	.	16g	.
.	.	16ccJ	.
8C	4c	8eeL	.
8CJ	.	16cc	8gg
.	.	16eeJ	.
=72	=72	=72	=72
8DL	8G	8ffL	4Bn
8C	4g	8ee	.
8BBn	.	8dd	4.ff
8AAJ	4g	8ccJ	.
8GGL	.	8bnL	.
8GG	8GL	8bJ	8dd
.	.	(<16qee	.
.	.	.	(<16qgg
8GG	8g	8ddL)	8ffL)
8GGJ	8fJ	16cc	16ee
.	.	16bJ	16ddJ
=73	=73	=73	=73
8CL	4e	8ccL	4ee
8C	.	16ee	.
.	.	16ccJ	.
.	.	(<16qb	.
8C	4e-	8aL)	4gg
8CJ	.	16g	.
.	.	16aJ	.
8BB-L	4d	8b-L	4.B-
8BB-y	.	16f	.
.	.	16b-yJ	.
8BB-y	4B-y	8ddL	.
8BB-yJ	.	16b-y	8ff
.	.	16ddJ	.
=74	=74	=74	=74
8CL	4F	4ee-	4A
8C	.	.	.
8BB-y	(4B-y	(4g	4.ee-
8BB-yJ	.	.	.
8AAL	8c)	8fL)	.
8A	4f	8aJ	8cc
.	.	(<16qdd	.
.	.	.	(<16qff
8F	.	8ccL)	8ee-yL)
8FJ	8F	16b-y	16dd
.	.	16aJ	16ccJ
=75	=75	=75	=75
8BB-yL	4F	8b-yL	4dd
8BB-y	.	16dd	.
.	.	16b-yJ	.
8BB-y	4d	8fL	4ff
8BB-yJ	.	16b-y	.
.	.	16fJ	.
8BB-yL	4B-y	8fL	4d
8BB-y	.	16b-y	.
.	.	16fJ	.
8BB-y	4b-y	8dL	4ff
8BB-yJ	.	16f	.
.	.	16dJ	.
=76	=76	=76	=76
8D-L	4r	8fL	4Bn
8D-y	.	8f	.
8D-y	8fL	8bn	2aa-
8D-yJ	8fJ	8bJ	.
8D-yL	8fL	8bL	.
8D-y	8f	8b	.
8D-y	8f	8b	(16ggL
.	.	.	16ff
8D-yJ	8fJ	8bJ	16een
.	.	.	16ffJ)
=77	=77	=77	=77
4C	4g	4cc	4ee
4c	4e 4G 4C	4r	8r
.	.	.	8cc
2r	2r	2r	(8cL
.	.	.	8d)
.	.	.	(8d
.	.	.	8eJ)
=78	=78	=78	=78
1r	1r	4r	(16eL
.	.	.	16f
.	.	.	16e
.	.	.	16dJ)
.	.	8r	8cL
.	.	8cc	8ccJ
.	.	(8cL	(8eL
.	.	8d)	8f)
.	.	(8d	(8f
.	.	8eJ)	8gJ)
=79	=79	=79	=79
1r	1r	(16eL	(16gL
.	.	16f	16a
.	.	16e	16g
.	.	16dJ)	16fJ)
.	.	8cL	8eL
.	.	8eJ	8ccJ
.	.	(8eL	(8gL
.	.	8f)	8a)
.	.	(8f	(8a
.	.	8gJ)	8b-yJ)
!!LO:LB
=80	=80	=80	=80
8CL	16eL	16gL	16b-yL
.	16e	16g	16b-y
8C	16e	16g	16b-y
.	16eJ	16gJ	16b-yJ
8C	16gL	16b-yL	16eeL
.	16g	16b-y	16ee
8CJ	16g	16b-y	16ee
.	16gJ	16b-yJ	16eeJ
8CL	16ccL	16eeL	16ggL
.	16cc	16ee	16gg
8C	16cc	16ee	16gg
.	16ccJ	16eeJ	16ggJ
8C	16eL	16ggL	16bb-yL
.	16e	16gg	16bb-y
8CJ	16e	16gg	16bb-y
.	16eJ	16ggJ	16bb-yJ
=81	=81	=81	=81
4F	4f	4ff	4aa
4r	4r	4r	2cc
8AAL	8cL	8fL	.
8AA	8c	8f	.
8AA	8c	8f	(8b-yL
8AAJ	8cJ	8fJ	8aJ)
=82	=82	=82	=82
8BB-yL	8dL	8fL	(8aL
8BB-y	8d	8f	8gJ)
8BB-y	8d	8f	(2g
8BB-yJ	8dJ	8fJ	.
8BB-yL	8dL	8fL	.
8BB-y	8d	8f	.
8C	8e-	8f	4a)
8CJ	8e-yJ	8fJ	.
=83	=83	=83	=83
8DL	8dL	8fL	(8aL
8D	8d	8f	8b-yJ)
8D	8d	8f	(2b-y
8DJ	8dJ	8fJ	.
8DL	8dL	8fL	.
8D	8d	8f	.
8AA	8c	8f	4cc)
8AAJ	8cJ	8fJ	.
=84	=84	=84	=84
8BB-yL	8B-yL	8fL	(4.dd
8BB-y	8B-y	8f	.
8BB-y	8B-y	8f	.
8BB-yJ	8GJ	8cJ	8ee)
4AA	8FL	(8cL	(8ffL
.	(8c	8a)	8cc)
4r	8en	(8g	(8b-y
.	8fJ)	8fJ)	8aJ)
!!LO:LB
=85	=85	=85	=85
8BB-yL	8dL	4f	(4.g
8BB-y	8d	.	.
8BB-y	8d	(2f	.
8BB-yJ	8dJ	.	16aL
.	.	.	16b-yJ)
8CL	8cL	.	4a
8C	8c	.	.
8C	8c	4e)	4g
8CJ	8cJ	.	.
=86	=86	=86	=86
4F	4c	4f	4f
4FF	8r	8r	8r
.	8c	8a	8cc
2r	(8fL	(8ddL	(8ffL
.	8e)	8cc)	8ee)
.	(8d	(8b-y	(8dd
.	8cJ)	8aJ)	8ccJ)
=87	=87	=87	=87
4r	8B-yL	8gL	8b-yL
.	8B-yJ	8gJ	8b-yJ
4G	8r	8r	8r
.	8b-y	8dd	8bb-y
4c	(8aL	(8ccL	(8aaL
.	8g)	8b-y)	8gg)
4C	(8f	(8a	(8ff
.	8eJ)	8gJ)	8eeJ)
=88	=88	=88	=88
4F	8fL	8aL	8ffL
.	8fJ	8aJ	8ffJ
4FF	8r	8r	8r
.	8c	8a	8cc
2r	(8fL	(8ddL	(8ffL
.	8e)	8cc)	8ee)
.	(8d	(8b-y	(8dd
.	8cJ)	8aJ)	8ccJ)
=89	=89	=89	=89
4r	8B-yL	8gL	8b-yL
.	8B-yJ	8gJ	8b-yJ
4G	8r	8r	8r
.	8b-y	8dd	8bb-y
4c	(8aL	(8ccL	(8aaL
.	8g)	8b-y)	8gg)
4C	(8f	(8a	(8ff
.	8eJ)	8gJ)	8eeJ)
=90	=90	=90	=90
4F	4f	4a	4ff
4F	4f	4ff 4a 4f	4aa 4cc 4f
4FF	4F	4aa 4cc 4f	4ff 4a 4f
4r	4r	4r	4r
=:|!	=:|!	=:|!	=:|!
*-	*-	*-	*-
!!!RDF**kern: < = below
